dist/svg/object-based/group_128.svg

<svg xmlns="http://www.w3.org/2000/svg" viewBox="0 0 128 128"><path d="M32 92c11.047 0 20-8.953 20-20s-8.953-20-20-20-20 8.953-20 20 8.953 20 20 20zm0-36c8.822 0 16 7.178 16 16s-7.178 16-16 16-16-7.178-16-16 7.178-16 16-16zM76 72c0 11.047 8.953 20 20 20s20-8.953 20-20-8.953-20-20-20-20 8.953-20 20zm20-16c8.822 0 16 7.178 16 16s-7.178 16-16 16-16-7.178-16-16 7.178-16 16-16zM84 28c0-11.047-8.953-20-20-20s-20 8.953-20 20 8.953 20 20 20 20-8.953 20-20zM64 44c-8.822 0-16-7.178-16-16s7.178-16 16-16 16 7.178 16 16-7.178 16-16 16zM48 100H16c-4.418 0-8 3.582-8 8v12h48v-12c0-4.418-3.582-8-8-8zM112 100H80c-4.418 0-8 3.582-8 8v12h48v-12c0-4.418-3.582-8-8-8z"/></svg>

<?xml version="1.0" encoding="iso-8859-1"?>
<!-- Generator: Adobe Illustrator 20.0.0, SVG Export Plug-In . SVG Version: 6.00 Build 0)  -->
<svg version="1.1" id="Layer_1" xmlns="http://www.w3.org/2000/svg" xmlns:xlink="http://www.w3.org/1999/xlink" x="0px" y="0px"
	 viewBox="0 0 128 128" style="enable-background:new 0 0 128 128;" xml:space="preserve">
<g>
	<path d="M32,92c11.047,0,20-8.953,20-20s-8.953-20-20-20s-20,8.953-20,20S20.953,92,32,92z M32,56c8.822,0,16,7.178,16,16
		s-7.178,16-16,16c-8.822,0-16-7.178-16-16S23.178,56,32,56z"/>
	<path d="M76,72c0,11.047,8.953,20,20,20s20-8.953,20-20s-8.953-20-20-20S76,60.953,76,72z M96,56c8.822,0,16,7.178,16,16
		s-7.178,16-16,16c-8.822,0-16-7.178-16-16S87.178,56,96,56z"/>
	<path d="M84,28c0-11.047-8.953-20-20-20s-20,8.953-20,20s8.953,20,20,20S84,39.047,84,28z M64,44c-8.822,0-16-7.178-16-16
		s7.178-16,16-16c8.822,0,16,7.178,16,16S72.822,44,64,44z"/>
	<path d="M48,100H16c-4.418,0-8,3.582-8,8v12h48v-12C56,103.582,52.418,100,48,100z"/>
	<path d="M112,100H80c-4.418,0-8,3.582-8,8v12h48v-12C120,103.582,116.418,100,112,100z"/>
</g>
</svg>
